X:23010
T:Wind that Shakes the Barley, The
R:Reel
C:Trad.
O:Ireland
Z:Paul Hardy's Session Tunebook 2015 (see www.paulhardy.net). Creative Commons cc by-nc-sa licenced.
P:ABA
M:2/2
L:1/8
Q:1/2=80
K:D
P:A
"D"A2AB AFED|"Bm"B2BA BcdB|"D"A2AB AFED|"Em"gfed "G"BcdB|
"D"A2AB AFED|"Bm"B2BA BcdB|"D"A2AB AFED|"Em"gfed "G"B2 !fine!de||
P:B
"D"f2fd "G"g2ge|"D"f2fd "A7"Bcde|"D"f2fd "Em"g2fg|"F#m"afed "G"Bcde|
"D"f2fd "G"g2ge|"Bm"f2fd Bcde|"D"fafd "Em"gbge|"F#m"afed "A7"Bc !D.C.!dB|]

